X:1
T:Clamabat autem mulier - Escobar
T:#
%%score [ 1 2 3 4 ]
L:1/8
Q:1/4=90
M:2/2
K:F
V:1 treble nm="Soprano" snm="S"
V:2 treble nm="Alto" snm="A"
V:3 treble-8 nm="Tenor" snm="T"
V:4 bass nm="Bass" snm="B"
V:1
"^Clamabat autem mulier""^Pedro de Escobar\n(c.1465-1535)""^Matthew 15:22-28" z8 | z8 | z8 | z8 | %4
w: ||||
 z8 | z8 | z8 | z8 |[M:2/2] z8 | z8 | z8 | z8 | z8 | z8 | z8 | z8 | A6 A2 | F8 | z4 A4- | A4 G4 | %20
w: ||||||||||||Do- mi-|ne|Ie\-|* su|
 (E4 F4) | (E8 | C8) | z8 | z4 F4 | F4 G4 | A4 F4 | z4 (A4- | A2 G2) F2 E2 | D8 | z8 | z8 | %32
w: Chri\- *|ste,|||fi-|li Da-|vid, *|ad\-|* * iu- va|me;|||
 z4 F4- | F2 F2 F4 | G4 A4 | B4 A4 | z4 z2 A2- | A2 A2 A2 A2 | F4 A4 | (G2 F4 E2) | F8 | z8 | z8 | %43
w: fi\-|* li- a|me- a|ma- le|a|* de- mo- ni-|o ve-|xa\- * *|tur.|||
 z8 | z8 | z8 | z8 | z4 z2 F2- | F2 E2 F4 | D8 | z8 | F4 F2 F2 | G4 A4 | z8 | F4 F2 F2 | %55
w: ||||Non|* sum mis-|sus||ni- si ad|o- ves||quae pe- ri-|
 (G2 A4 G2) | A8 | G4 F4 | B4 (A2 G2- | GF F4 E2) |"^el." F8 | z8 | z8 | z8 | z8 | z8 | z8 | z8 | %68
w: e\- * *|runt|do- mus|Is- ra\- *||||||||||
 z8 | z8 | z8 | A8 | G4 F4 | z4 (A4- | A2 G2) F4- | F4 E4 | F8 | z8 | z8 | z8 | z8 | z8 | A8 | %83
w: |||Do-|mi- ne,|ad\-|* * iu\-|* va|me.||||||Mu-|
 B4 A4 | z8 | z4 z2 (A2- | A2 F2) (G2 B2) | A4 z4 | z4 z2 A2- | A2 F2 (G2 B2) | A4 z4 | z4 z2 A2- | %92
w: li- er,||ma\-|* * gna *|est|fi\-|* des tu\- *|a,|fi\-|
 A2 F2 (G2 B2) | A4 z4 | z4 z2 (A2- | A2 F2 G2) B2 | A4 (G2 A2- | AG) B3 (AGF) | %98
w: * at ti\- *|bi|si\-|* * * cut|vis, fi\- *|* * at ti\- * *|
 E2[Q:1/4=88] F4[Q:1/4=87] E2 |[Q:1/4=85] F8- |[Q:1/4=81] F8 |[Q:1/4=77] F8 | %102
w: bi si- cut|vis.|||
[Q:1/4=76] !fermata!F8 |] %103
w: |
V:2
 C4 C4- | C2 C2 D4 | C4 z2 C2- | C2 =B,2 (C4 | A,4) z4 | z4 z2 C2- | C2 C2 D4 | C4 z2 C2 | %8
w: Cla- ma\-|* bat au-|tem mu\-|* li- er||chan\-|* na- nae-|a ad|
[M:2/2] F2 F2 E2 E2 | C4 z4 | z4 z2 (E2 | D2 F4 ED | E2 C2) D4 | z4 z2 (E2 | D2 F4 E2) | %15
w: Do- mi- num Ie-|sum,|di\-||* * cens,|di\-||
"^cens:" F8 | z8 | z8 | z8 | z8 | z8 | z8 | z8 | z8 | z8 | z8 | z8 | z8 | z8 | z8 | B,6 A,2 | %31
w: |||||||||||||||fi- li-|
 B,4 C4 | D8 | z8 | z4 z2 (F2- | F2 E2) F4 | z4 z2 F2- | F2 F2 F2 F2 | D4 z4 | z8 | z8 | z8 | %42
w: a me-|a||ma\-|* * le|a|* de- mo- ni-|o.||||
 z4 E4 | E6 E2 | F4 E4 | z2 E4 E2 | E4 D4 | C4 z2 C2- | C2 C2 C4 | B,8 | z4 z2 B,2 | %51
w: Re-|spon- dens|e- i|Do- mi-|nus di-|xit: Non|* sum mis-|sus|ni-|
 C2 C2 (D2 F2- | F2 E2) F4 | z2 F2 D2 D2 | C4 B,2 (F2 | E2 C2 D4) | D2 (F3 EDC | B,2) C2 D4 | %58
w: si ad o\- *|* * ves|quae pe- ri-|e- runt do\-||mus Is\- * * *|* ra- el,|
 z2 F2 (E2 C2- | C2 B,2 C4) | A,8 | z8 | F4 F2 F2 | D4 C4 | z4 F4 | F2 F2 D4 | C4 F4 | E4 (D4 | %68
w: Is- ra\- *||el.||At il- la|ve- nit|et|a- do- ra-|vit e-|um di\-|
 C4 F4- | F4 E4) | F8 | z8 | z8 | A,8 | (A,4 B,4) | C8 | A,8 | z4 C4 | C4 C2 C2 | C4 z2 F2- | %80
w: ||cens:|||ad-|iu\- *|va|me.|Re-|spon- dens Ie-|sus a\-|
 F2 D2 E4 | F8 | z8 | z8 | (C4 D2 F2 | E2 D2 C4 | D4) (C2 B,2) | F4 z2 (F2 | E2 D2) (C4 | %89
w: * it il-|li:|||ma\- * *||* gna *|est fi\-|* * des|
 D4) (C2 B,2) | F4 z2 (F2 | E2 D2) (C4 | D4) (C2 B,2) | F4 z2 (F2 | E2) D2 C4 | D4 C2 B,2 | F4 E4 | %97
w: * tu\- *|a, fi\-|* * at|* ti\- *|bi si\-|* cut vis,|* fi- at|ti- bi|
 D8 | C8 | A,4 D4- | D4 D4 | (C4 D4 | !fermata!C8) |] %103
w: si-|cut|vis, si\-|* cut|vis. *||
V:3
 z8 | z8 | z8 | z8 | z8 | z8 | z8 | z8 |[M:2/2][K:treble-8] z8 | z8 | z8 | z8 | z8 | z8 | z8 | %15
w: |||||||||||||||
 z4 c4- | c2 c2 A4 | z4 (d4- | d4 c4) | A4 (B2 G2- | G2 c4 =B2) | (c8 | A8) | z8 | c8 | A4 B4 | %26
w: Do\-|* mi- ne|Ie\-||su Chri\- *||ste,|||fi-|li Da-|
 A4 z2 (c2- | c2 B2 A2 G2) | (F2 G2) A4 | B8 | z8 | z8 | z8 | z8 | z8 | z4 F4 | c4 z2 c2- | %37
w: vid, ad\-||iu\- * va|me:||||||ma-|le a|
 c2 c2 A2 A2 | B4 c4 | (B2 A2 G4 | F4 A4 | G2 c4 =B2) | c8 | z8 | z8 | G6 G2 | G2 A2 B4 | %47
w: * de- mo- ni-|o ve-|xa\- * *|||tur.|||Do- mi-|nus * di-|
 A4 z2 A2- | A2 G2 A4 | F4 z2 F2 | F2 F2 G4 | A4 z4 | z8 | z8 | z4 d4 | c2 A2 B4 | (A4 F4) | %57
w: xit: Non|* sum mis-|sus ni-|si ad o-|ves|||quae|pe- ri- e-|runt *|
 G4 A4 | (d4 c4) | (A2 F2 G4) | F8 | A4 A2 A2 | A4 (F4 | B4) z2 A2 | A2 A2 A4 | (F4 B4) | %66
w: do- mus|Is\- *|ra\- * *|el.|At il- la|ve- nit|* et|a- do- ra-|vit *|
 z2 (A4 F2 | G2 A2) B4 | (A4 F4 | G8) | F8 | z8 | z8 | c8 | F8 | G8 | F8 | z4 A4 | A4 G2 G2 | %79
w: e\- *|* * um|di\- *||cens:|||ad-|iu-|va|me.|Re-|spon- dens Ie-|
 A4 z2 A2- | A2 B2 G4 | F8 | z8 | z8 | z2 (A4 F2) | (G2 B2) A4 | z8 | z2 A4 F2 | (G2 B2) A4 | z8 | %90
w: sus a\-|* it il-|li:|||ma\- *|gna * est||fi- des|tu\- * a,||
 z2 A4 F2 | (G2 B2) A4 | z8 | z2 (A4 F2) | (G2 B2) A4 | z8 | c4 c4 | F4 (B3 A) | (G2 F2) G4 | F8 | %100
w: fi- at|ti\- * bi||si\- *|cut * vis,||fi- at|ti- bi *|si\- * cut|vis,|
 B4 (A2 G2) | (A4 B4 | !fermata!A8) |] %103
w: si- cut *|vis. *||
V:4
 z8 | z8 | z4 F,4 | D,4 C,4 | z2 F,4 F,2 | G,4 F,4 | z2 F,2 B,2 B,2 | A,2 A,2 F,4 |[M:2/2] z8 | %9
w: ||mu-|li- er|chan- na-|nae- a|ad Do- mi-|num Ie- sum,||
 z2 (A,2 G,2 B,2- | B,2 A,G, A,4) | F,4 z4 | z2 (A,2 G,2 B,2- | B,2 A,G, A,4 | F,4 G,4) | F,8 | %16
w: di\- * *||cens,|di\- * *|||cens:|
 z8 | D,6 D,2 | B,,4 F,4- | F,4 _E,4 | (C,4 D,4) | C,8 | z4 F,4 | F,4 G,4 | (A,4 F,4) | z8 | %26
w: |Do- mi-|ne Ie\-|* su|Chri\- *|ste,|fi-|li Da-|vid, *||
 z4 (A,4- | A,2 G,2 F,2 E,2) | D,6 C,2 | B,,8 | z8 | z8 | z8 | B,6 A,2 | B,4 A,4 | G,4 z2 (F,2- | %36
w: ad\-||iu- va|me:||||fi- li-|a me-|a ma\-|
 F,2 E,2) F,4 | z2 F,4 F,2 | B,,2 B,,2 (F,3 D,) | (_E,2 F,2) (C,4 | D,2 F,4 D,2 | E,2 F,2 D,4) | %42
w: * * le|a de-|mo- ni- o *|ve\- * xa\-|||
 C,8 | z8 | z8 | C,6 C,2 | C,4 B,,4 | F,4 z2 F,2- | F,2 C,2 F,4 | B,,8 | z8 | z8 | z4 F,4 | %53
w: tur.|||Do- mi-|nus di-|xit: Non|* sum mis-|sus|||quae|
 F,2 F,2 G,4 | A,4 z4 | z8 | D,8 | (_E,4 D,4) | (B,,4 C,4) | (D,4 C,4) | C8 | z4 F,4 | %62
w: pe- ri- e-|runt||do-|mus *|Is\- *|ra\- *|el.|At|
 F,2 F,2 D,4 | (B,,4 F,4) | F,4 F,2 F,2 | D,4 (B,,4 | F,4) D,4 | C,4 (B,,4 | F,4 D,4 | C,8) | C8 | %71
w: il- la ve-|nit *|et a- dor-|ra- vit|* e-|um di\-|||cens:|
 z8 | z8 | F,8 | D,8 | C,8 | C8 | z4 F,4 | F,4 C,2 C,2 | F,4 z2 D,2- | D,2 B,,2 C,4 | C8 | z8 | %83
w: ||ad-|iu-|va|me.|Re-|spon- dens Ie-|sus a\-|* it il-|li:||
 z4 z2 F,2- | F,2 F,2 D,4 | (C,2 B,,2) (F,4 | D,4) z2 G,2 | (F,4 D,4) | (C,2 B,,2) (F,4 | %89
w: ma\-|* gna, ma-|gna * est|* fi-|des *|tu\- * a,|
 D,4) z2 G,2 | (F,4 D,4) | (C,2 B,,2) (F,4 | D,4) z2 (G,2 | F,4 D,4) | (C,2 B,,2) (F,4 | %95
w: * fi-|at *|ti\- * bi|* si\-||cut * vis,|
 D,4 z2 G,2 | F,4 C,4 | D,4 B,,4 | C,8 | D,4 (D,2 B,,2- | B,,2 C,2) D,2 E,2) | (F,4 B,,4 | %102
w: * fi-|at ti-|bi si-|cut|vis, si\- *|* * cut *|vis. *|
 !fermata!F,8) |] %103
w: |

